automatic/svg/Microsoft - XBOX 360 S T.svg

<?xml version="1.0" encoding="UTF-8" standalone="no"?>
<svg
   xmlns:dc="http://purl.org/dc/elements/1.1/"
   xmlns:cc="http://creativecommons.org/ns#"
   xmlns:rdf="http://www.w3.org/1999/02/22-rdf-syntax-ns#"
   xmlns:svg="http://www.w3.org/2000/svg"
   xmlns="http://www.w3.org/2000/svg"
   viewBox="0 0 305.85315 320.00399"
   height="320.004"
   width="305.85315"
   xml:space="preserve"
   id="svg2"
   version="1.1"><metadata
     id="metadata8"><rdf:RDF><cc:Work
         rdf:about=""><dc:format>image/svg+xml</dc:format><dc:type
           rdf:resource="http://purl.org/dc/dcmitype/StillImage" /></cc:Work></rdf:RDF></metadata><defs
     id="defs6"><clipPath
       id="clipPath18"
       clipPathUnits="userSpaceOnUse"><path
         id="path16"
         d="M 0,256 H 256 V 0 H 0 Z" /></clipPath></defs><g
     transform="matrix(1.3333333,0,0,-1.3333333,-17.738441,329.22799)"
     id="g10"><g
       id="g12"><g
         clip-path="url(#clipPath18)"
         id="g14"><g
           transform="translate(23.2197,10.918)"
           id="g20"><path
             id="path22"
             style="fill:#f2f2f2;fill-opacity:1;fill-rule:nonzero;stroke:none"
             d="m 0,0 c -0.972,0 -1.895,0.356 -2.613,0.978 -0.131,0.113 -0.256,0.234 -0.372,0.365 -0.004,0.004 -0.009,0.008 -0.013,0.011 -0.118,0.135 -0.23,0.276 -0.33,0.427 L -6.141,6 h 4.245 4.041 213.328 0.386 L 213.047,1.781 C 212.305,0.668 211.056,0 209.719,0 Z M 15.841,87.851 6.347,10 H 2.716 -1.324 -5.628 L 3.859,84 Z M -3.921,222.003 8.181,222.215 15.411,92.066 14.594,91.795 3.417,88.069 Z m 113.778,1.996 105.433,-1.989 -8.82,-61.83 -1.938,-0.692 L 20.553,93.781 19.345,93.378 12.183,222.286 Z M 10.377,10 19.83,87.516 20.054,89.355 205.878,155.721 215.465,10 Z M 5.907,226.176 -4.141,226 l 1.089,3.265 c 0.544,1.633 2.073,2.735 3.794,2.735 h 5.041 204.156 1.038 c 0.24,0 0.475,-0.026 0.706,-0.068 0.057,-0.011 0.113,-0.028 0.17,-0.041 0.177,-0.04 0.351,-0.09 0.52,-0.153 0.049,-0.018 0.096,-0.039 0.144,-0.059 0.181,-0.076 0.355,-0.165 0.522,-0.266 0.027,-0.017 0.055,-0.032 0.081,-0.049 0.756,-0.482 1.354,-1.207 1.651,-2.099 l 1.088,-3.265 -106,2 z m 210.468,-226.613 2.812,4.218 0.287,6.219 -9.591,145.78 9.048,63.429 c 0.258,1.813 0.351,3.645 0.275,5.474 l -0.125,3.039 c -0.039,0.955 -0.213,1.901 -0.516,2.808 0,3.021 -2.448,5.47 -5.469,5.47 H 109.939 l -0.077,0.003 L 109.783,236 H 0.742 c -3.443,0 -6.5,-2.204 -7.589,-5.47 l -1.089,-3.265 0.012,-5.332 L -0.398,84.581 -9.661,10 -9.892,7.001 c -0.16,-2.065 0.489,-4.112 1.808,-5.71 l 1.428,-1.728 C -5.169,-2.668 -2.681,-4 0,-4 h 209.719 c 2.675,0 5.173,1.337 6.656,3.563" /></g><g
           transform="translate(112.3252,60.5967)"
           id="g24"><path
             id="path26"
             style="fill:#f2f2f2;fill-opacity:1;fill-rule:nonzero;stroke:none"
             d="m 0,0 0.819,4.262 -22.262,-7.124 -0.704,-4.225 z" /></g><g
           transform="translate(113.9644,69.1211)"
           id="g28"><path
             id="path30"
             style="fill:#f2f2f2;fill-opacity:1;fill-rule:nonzero;stroke:none"
             d="m 0,0 0.82,4.263 -22.494,-7.199 -0.704,-4.225 z" /></g><g
           transform="translate(110.6855,52.0723)"
           id="g32"><path
             id="path34"
             style="fill:#f2f2f2;fill-opacity:1;fill-rule:nonzero;stroke:none"
             d="m 0,0 0.82,4.262 -22.032,-7.05 -0.705,-4.226 z" /></g><g
           transform="translate(123.9644,100.3213)"
           id="g36"><path
             id="path38"
             style="fill:#f2f2f2;fill-opacity:1;fill-rule:nonzero;stroke:none"
             d="m 0,0 -0.82,-4.263 28.632,9.162 0.757,4.243 z" /></g><g
           transform="translate(119.0464,74.7471)"
           id="g40"><path
             id="path42"
             style="fill:#f2f2f2;fill-opacity:1;fill-rule:nonzero;stroke:none"
             d="M 0,0 -0.82,-4.262 28.184,5.02 28.942,9.262 Z" /></g><g
           transform="translate(117.4067,66.2227)"
           id="g44"><path
             id="path46"
             style="fill:#f2f2f2;fill-opacity:1;fill-rule:nonzero;stroke:none"
             d="m 0,0 -0.819,-4.262 29.128,9.321 0.757,4.243 z" /></g><g
           transform="translate(122.3252,91.7969)"
           id="g48"><path
             id="path50"
             style="fill:#f2f2f2;fill-opacity:1;fill-rule:nonzero;stroke:none"
             d="m 0,0 -0.82,-4.263 28.756,9.202 0.757,4.243 z" /></g><g
           transform="translate(120.6855,83.2725)"
           id="g52"><path
             id="path54"
             style="fill:#f2f2f2;fill-opacity:1;fill-rule:nonzero;stroke:none"
             d="m 0,0 -0.82,-4.263 28.881,9.242 0.756,4.242 z" /></g><g
           transform="translate(117.2432,86.1699)"
           id="g56"><path
             id="path58"
             style="fill:#f2f2f2;fill-opacity:1;fill-rule:nonzero;stroke:none"
             d="M 0,0 0.819,4.263 -22.136,-3.083 -22.84,-7.309 Z" /></g><g
           transform="translate(115.6035,77.6455)"
           id="g60"><path
             id="path62"
             style="fill:#f2f2f2;fill-opacity:1;fill-rule:nonzero;stroke:none"
             d="M 0,0 0.82,4.263 -21.905,-3.01 -22.609,-7.234 Z" /></g><g
           transform="translate(112.4888,40.6494)"
           id="g64"><path
             id="path66"
             style="fill:#f2f2f2;fill-opacity:1;fill-rule:nonzero;stroke:none"
             d="m 0,0 -0.819,-4.263 29.5,9.441 0.758,4.242 z" /></g><g
           transform="translate(139.6553,37.3418)"
           id="g68"><path
             id="path70"
             style="fill:#f2f2f2;fill-opacity:1;fill-rule:nonzero;stroke:none"
             d="m 0,0 0.757,4.243 -29.563,-9.461 -0.819,-4.261 z" /></g><g
           transform="translate(97.9243,99.9883)"
           id="g72"><path
             id="path74"
             style="fill:#f2f2f2;fill-opacity:1;fill-rule:nonzero;stroke:none"
             d="m 0,0 -0.705,-4.226 23.302,7.457 0.82,4.262 z" /></g><g
           transform="translate(132.0791,22.918)"
           id="g76"><path
             id="path78"
             style="fill:#f2f2f2;fill-opacity:1;fill-rule:nonzero;stroke:none"
             d="M 0,0 H 5 L 5.303,1.697 Z" /></g><g
           transform="translate(105.7676,26.498)"
           id="g80"><path
             id="path82"
             style="fill:#f2f2f2;fill-opacity:1;fill-rule:nonzero;stroke:none"
             d="m 0,0 0.82,4.263 -21.34,-6.829 -0.168,-1.014 h 9.5 z" /></g><g
           transform="translate(118.8823,94.6953)"
           id="g84"><path
             id="path86"
             style="fill:#f2f2f2;fill-opacity:1;fill-rule:nonzero;stroke:none"
             d="m 0,0 0.82,4.262 -23.187,-7.42 -0.704,-4.225 z" /></g><g
           transform="translate(115.7676,57.6982)"
           id="g88"><path
             id="path90"
             style="fill:#f2f2f2;fill-opacity:1;fill-rule:nonzero;stroke:none"
             d="M 0,0 -0.82,-4.263 28.433,5.099 29.19,9.341 Z" /></g><g
           transform="translate(114.1284,49.1738)"
           id="g92"><path
             id="path94"
             style="fill:#f2f2f2;fill-opacity:1;fill-rule:nonzero;stroke:none"
             d="m 0,0 -0.82,-4.263 29.377,9.401 0.757,4.243 z" /></g><g
           transform="translate(87.3608,60.6084)"
           id="g96"><path
             id="path98"
             style="fill:#f2f2f2;fill-opacity:1;fill-rule:nonzero;stroke:none"
             d="M 0,0 0.704,4.225 -25.491,-4.157 -26.09,-8.35 Z" /></g><g
           transform="translate(83.1353,35.2559)"
           id="g100"><path
             id="path102"
             style="fill:#f2f2f2;fill-opacity:1;fill-rule:nonzero;stroke:none"
             d="m 0,0 0.705,4.226 -25.563,-8.181 -0.6,-4.191 z" /></g><g
           transform="translate(84.5439,43.707)"
           id="g104"><path
             id="path106"
             style="fill:#f2f2f2;fill-opacity:1;fill-rule:nonzero;stroke:none"
             d="M 0,0 0.704,4.225 -25.07,-4.022 -25.668,-8.214 Z" /></g><g
           transform="translate(109.8657,47.8096)"
           id="g108"><path
             id="path110"
             style="fill:#f2f2f2;fill-opacity:1;fill-rule:nonzero;stroke:none"
             d="m 0,0 -21.801,-6.977 -0.704,-4.224 21.686,6.939 z" /></g><g
           transform="translate(85.9521,52.1572)"
           id="g112"><path
             id="path114"
             style="fill:#f2f2f2;fill-opacity:1;fill-rule:nonzero;stroke:none"
             d="M 0,0 0.705,4.226 -25.28,-4.09 -25.879,-8.281 Z" /></g><g
           transform="translate(81.7271,26.8057)"
           id="g116"><path
             id="path118"
             style="fill:#f2f2f2;fill-opacity:1;fill-rule:nonzero;stroke:none"
             d="m 0,0 0.704,4.225 -25.352,-8.113 h 12.5 z" /></g><g
           transform="translate(88.769,69.0586)"
           id="g120"><path
             id="path122"
             style="fill:#f2f2f2;fill-opacity:1;fill-rule:nonzero;stroke:none"
             d="m 0,0 0.705,4.226 -26.407,-8.451 -0.599,-4.191 z" /></g><g
           transform="translate(128.0625,121.6328)"
           id="g124"><path
             id="path126"
             style="fill:#f2f2f2;fill-opacity:1;fill-rule:nonzero;stroke:none"
             d="M 0,0 28.259,9.042 29.017,13.285 0.82,4.262 Z" /></g><g
           transform="translate(125.6035,108.8457)"
           id="g128"><path
             id="path130"
             style="fill:#f2f2f2;fill-opacity:1;fill-rule:nonzero;stroke:none"
             d="M 0,0 -0.819,-4.263 27.687,4.86 28.445,9.103 Z" /></g><g
           transform="translate(107.4067,35.0225)"
           id="g132"><path
             id="path134"
             style="fill:#f2f2f2;fill-opacity:1;fill-rule:nonzero;stroke:none"
             d="M 0,0 0.82,4.263 -20.75,-2.64 -21.455,-6.865 Z" /></g><g
           transform="translate(138.1396,28.8574)"
           id="g136"><path
             id="path138"
             style="fill:#f2f2f2;fill-opacity:1;fill-rule:nonzero;stroke:none"
             d="m 0,0 0.758,4.242 -29.687,-9.5 -0.132,-0.681 h 10.5 z" /></g><g
           transform="translate(100.7412,116.8896)"
           id="g140"><path
             id="path142"
             style="fill:#f2f2f2;fill-opacity:1;fill-rule:nonzero;stroke:none"
             d="m 0,0 -0.705,-4.226 23.764,7.605 0.82,4.263 z" /></g><g
           transform="translate(98.6284,104.2139)"
           id="g144"><path
             id="path146"
             style="fill:#f2f2f2;fill-opacity:1;fill-rule:nonzero;stroke:none"
             d="m 0,0 23.533,7.53 0.82,4.263 L 0.704,4.226 Z" /></g><g
           transform="translate(68.4565,102.5586)"
           id="g148"><path
             id="path150"
             style="fill:#f2f2f2;fill-opacity:1;fill-rule:nonzero;stroke:none"
             d="M 0,0 27.355,8.754 28.059,12.979 0.599,4.191 Z" /></g><g
           transform="translate(127.2432,117.3701)"
           id="g152"><path
             id="path154"
             style="fill:#f2f2f2;fill-opacity:1;fill-rule:nonzero;stroke:none"
             d="M 0,0 -0.82,-4.262 27.563,4.82 28.32,9.063 Z" /></g><g
           transform="translate(94.4028,102.8613)"
           id="g156"><path
             id="path158"
             style="fill:#f2f2f2;fill-opacity:1;fill-rule:nonzero;stroke:none"
             d="m 0,0 0.705,4.226 -27.25,-8.72 -0.599,-4.192 z" /></g><g
           transform="translate(91.5859,85.96)"
           id="g160"><path
             id="path162"
             style="fill:#f2f2f2;fill-opacity:1;fill-rule:nonzero;stroke:none"
             d="m 0,0 0.705,4.226 -26.829,-8.585 -0.599,-4.192 z" /></g><g
           transform="translate(90.1777,77.5098)"
           id="g164"><path
             id="path166"
             style="fill:#f2f2f2;fill-opacity:1;fill-rule:nonzero;stroke:none"
             d="m 0,0 0.704,4.225 -26.617,-8.518 -0.599,-4.191 z" /></g><g
           transform="translate(92.9946,94.4111)"
           id="g168"><path
             id="path170"
             style="fill:#f2f2f2;fill-opacity:1;fill-rule:nonzero;stroke:none"
             d="m 0,0 0.704,4.225 -27.039,-8.653 -0.599,-4.191 z" /></g></g></g></g></svg>

<?xml version="1.0" encoding="UTF-8" standalone="no"?>
<svg
   xmlns:dc="http://purl.org/dc/elements/1.1/"
   xmlns:cc="http://creativecommons.org/ns#"
   xmlns:rdf="http://www.w3.org/1999/02/22-rdf-syntax-ns#"
   xmlns:svg="http://www.w3.org/2000/svg"
   xmlns="http://www.w3.org/2000/svg"
   viewBox="0 0 320 320"
   height="320"
   width="320"
   xml:space="preserve"
   version="1.1"
   id="svg2"><metadata
     id="metadata8"><rdf:RDF><cc:Work
         rdf:about=""><dc:format>image/svg+xml</dc:format><dc:type
           rdf:resource="http://purl.org/dc/dcmitype/StillImage" /></cc:Work></rdf:RDF></metadata><defs
     id="defs6"><clipPath
       id="clipPath16"
       clipPathUnits="userSpaceOnUse"><path
         id="path18"
         d="M 0,256 256,256 256,0 0,0 0,256 Z" /></clipPath></defs><g
     transform="matrix(1.25,0,0,-1.25,0,320)"
     id="g10"><g
       id="g12"><g
         clip-path="url(#clipPath16)"
         id="g14"><g
           transform="translate(23.2197,10.918)"
           id="g20"><path
             id="path22"
             style="fill:#f2f2f2;fill-opacity:1;fill-rule:nonzero;stroke:none"
             d="m 0,0 c -0.972,0 -1.895,0.356 -2.613,0.978 -0.131,0.113 -0.256,0.234 -0.372,0.365 -0.004,0.004 -0.009,0.008 -0.013,0.011 -0.118,0.135 -0.23,0.276 -0.33,0.427 L -6.141,6 l 4.245,0 4.041,0 213.328,0 0.386,0 -2.812,-4.219 C 212.305,0.668 211.056,0 209.719,0 L 0,0 Z M 15.841,87.851 6.347,10 l -3.631,0 -4.04,0 -4.304,0 9.487,74 11.982,3.851 z M -3.921,222.003 8.181,222.215 15.411,92.066 14.594,91.795 3.417,88.069 -3.921,222.003 Z m 113.778,1.996 105.433,-1.989 -8.82,-61.83 -1.938,-0.692 -183.979,-65.707 -1.208,-0.403 -7.162,128.908 97.674,1.713 z M 10.377,10 19.83,87.516 20.054,89.355 205.878,155.721 215.465,10 10.377,10 Z M 5.907,226.176 -4.141,226 l 1.089,3.265 c 0.544,1.633 2.073,2.735 3.794,2.735 l 5.041,0 204.156,0 1.038,0 c 0.24,0 0.475,-0.026 0.706,-0.068 0.057,-0.011 0.113,-0.028 0.17,-0.041 0.177,-0.04 0.351,-0.09 0.52,-0.153 0.049,-0.018 0.096,-0.039 0.144,-0.059 0.181,-0.076 0.355,-0.165 0.522,-0.266 0.027,-0.017 0.055,-0.032 0.081,-0.049 0.756,-0.482 1.354,-1.207 1.651,-2.099 l 1.088,-3.265 -106,2 -103.952,-1.824 z m 210.468,-226.613 2.812,4.218 0.287,6.219 -9.591,145.78 9.048,63.429 c 0.258,1.813 0.351,3.645 0.275,5.474 l -0.125,3.039 c -0.039,0.955 -0.213,1.901 -0.516,2.808 0,3.021 -2.448,5.47 -5.469,5.47 l -103.157,0 -0.077,0.003 L 109.783,236 0.742,236 c -3.443,0 -6.5,-2.204 -7.589,-5.47 l -1.089,-3.265 0.012,-5.332 L -0.398,84.581 -9.661,10 -9.892,7.001 c -0.16,-2.065 0.489,-4.112 1.808,-5.71 l 1.428,-1.728 C -5.169,-2.668 -2.681,-4 0,-4 l 209.719,0 c 2.675,0 5.173,1.337 6.656,3.563" /></g><g
           transform="translate(112.3252,60.5967)"
           id="g24"><path
             id="path26"
             style="fill:#f2f2f2;fill-opacity:1;fill-rule:nonzero;stroke:none"
             d="M 0,0 0.819,4.262 -21.443,-2.862 -22.147,-7.087 0,0 Z" /></g><g
           transform="translate(113.9644,69.1211)"
           id="g28"><path
             id="path30"
             style="fill:#f2f2f2;fill-opacity:1;fill-rule:nonzero;stroke:none"
             d="M 0,0 0.82,4.263 -21.674,-2.936 -22.378,-7.161 0,0 Z" /></g><g
           transform="translate(110.6855,52.0723)"
           id="g32"><path
             id="path34"
             style="fill:#f2f2f2;fill-opacity:1;fill-rule:nonzero;stroke:none"
             d="M 0,0 0.82,4.262 -21.212,-2.788 -21.917,-7.014 0,0 Z" /></g><g
           transform="translate(123.9644,100.3213)"
           id="g36"><path
             id="path38"
             style="fill:#f2f2f2;fill-opacity:1;fill-rule:nonzero;stroke:none"
             d="M 0,0 -0.82,-4.263 27.812,4.899 28.569,9.142 0,0 Z" /></g><g
           transform="translate(119.0464,74.7471)"
           id="g40"><path
             id="path42"
             style="fill:#f2f2f2;fill-opacity:1;fill-rule:nonzero;stroke:none"
             d="M 0,0 -0.82,-4.262 28.184,5.02 28.942,9.262 0,0 Z" /></g><g
           transform="translate(117.4067,66.2227)"
           id="g44"><path
             id="path46"
             style="fill:#f2f2f2;fill-opacity:1;fill-rule:nonzero;stroke:none"
             d="M 0,0 -0.819,-4.262 28.309,5.059 29.066,9.302 0,0 Z" /></g><g
           transform="translate(122.3252,91.7969)"
           id="g48"><path
             id="path50"
             style="fill:#f2f2f2;fill-opacity:1;fill-rule:nonzero;stroke:none"
             d="M 0,0 -0.82,-4.263 27.936,4.939 28.693,9.182 0,0 Z" /></g><g
           transform="translate(120.6855,83.2725)"
           id="g52"><path
             id="path54"
             style="fill:#f2f2f2;fill-opacity:1;fill-rule:nonzero;stroke:none"
             d="M 0,0 -0.82,-4.263 28.061,4.979 28.817,9.221 0,0 Z" /></g><g
           transform="translate(117.2432,86.1699)"
           id="g56"><path
             id="path58"
             style="fill:#f2f2f2;fill-opacity:1;fill-rule:nonzero;stroke:none"
             d="M 0,0 0.819,4.263 -22.136,-3.083 -22.84,-7.309 0,0 Z" /></g><g
           transform="translate(115.6035,77.6455)"
           id="g60"><path
             id="path62"
             style="fill:#f2f2f2;fill-opacity:1;fill-rule:nonzero;stroke:none"
             d="M 0,0 0.82,4.263 -21.905,-3.01 -22.609,-7.234 0,0 Z" /></g><g
           transform="translate(112.4888,40.6494)"
           id="g64"><path
             id="path66"
             style="fill:#f2f2f2;fill-opacity:1;fill-rule:nonzero;stroke:none"
             d="M 0,0 -0.819,-4.263 28.681,5.178 29.439,9.42 0,0 Z" /></g><g
           transform="translate(139.6553,37.3418)"
           id="g68"><path
             id="path70"
             style="fill:#f2f2f2;fill-opacity:1;fill-rule:nonzero;stroke:none"
             d="M 0,0 0.757,4.243 -28.806,-5.218 -29.625,-9.479 0,0 Z" /></g><g
           transform="translate(97.9243,99.9883)"
           id="g72"><path
             id="path74"
             style="fill:#f2f2f2;fill-opacity:1;fill-rule:nonzero;stroke:none"
             d="M 0,0 -0.705,-4.226 22.597,3.231 23.417,7.493 0,0 Z" /></g><g
           transform="translate(132.0791,22.918)"
           id="g76"><path
             id="path78"
             style="fill:#f2f2f2;fill-opacity:1;fill-rule:nonzero;stroke:none"
             d="M 0,0 5,0 5.303,1.697 0,0 Z" /></g><g
           transform="translate(105.7676,26.498)"
           id="g80"><path
             id="path82"
             style="fill:#f2f2f2;fill-opacity:1;fill-rule:nonzero;stroke:none"
             d="m 0,0 0.82,4.263 -21.34,-6.829 -0.168,-1.014 9.5,0 L 0,0 Z" /></g><g
           transform="translate(118.8823,94.6953)"
           id="g84"><path
             id="path86"
             style="fill:#f2f2f2;fill-opacity:1;fill-rule:nonzero;stroke:none"
             d="M 0,0 0.82,4.262 -22.367,-3.158 -23.071,-7.383 0,0 Z" /></g><g
           transform="translate(115.7676,57.6982)"
           id="g88"><path
             id="path90"
             style="fill:#f2f2f2;fill-opacity:1;fill-rule:nonzero;stroke:none"
             d="M 0,0 -0.82,-4.263 28.433,5.099 29.19,9.341 0,0 Z" /></g><g
           transform="translate(114.1284,49.1738)"
           id="g92"><path
             id="path94"
             style="fill:#f2f2f2;fill-opacity:1;fill-rule:nonzero;stroke:none"
             d="M 0,0 -0.82,-4.263 28.557,5.138 29.314,9.381 0,0 Z" /></g><g
           transform="translate(87.3608,60.6084)"
           id="g96"><path
             id="path98"
             style="fill:#f2f2f2;fill-opacity:1;fill-rule:nonzero;stroke:none"
             d="M 0,0 0.704,4.225 -25.491,-4.157 -26.09,-8.35 0,0 Z" /></g><g
           transform="translate(83.1353,35.2559)"
           id="g100"><path
             id="path102"
             style="fill:#f2f2f2;fill-opacity:1;fill-rule:nonzero;stroke:none"
             d="m 0,0 0.705,4.226 -25.563,-8.181 -0.6,-4.191 L 0,0 Z" /></g><g
           transform="translate(84.5439,43.707)"
           id="g104"><path
             id="path106"
             style="fill:#f2f2f2;fill-opacity:1;fill-rule:nonzero;stroke:none"
             d="M 0,0 0.704,4.225 -25.07,-4.022 -25.668,-8.214 0,0 Z" /></g><g
           transform="translate(109.8657,47.8096)"
           id="g108"><path
             id="path110"
             style="fill:#f2f2f2;fill-opacity:1;fill-rule:nonzero;stroke:none"
             d="m 0,0 -21.801,-6.977 -0.704,-4.224 21.686,6.939 L 0,0 Z" /></g><g
           transform="translate(85.9521,52.1572)"
           id="g112"><path
             id="path114"
             style="fill:#f2f2f2;fill-opacity:1;fill-rule:nonzero;stroke:none"
             d="M 0,0 0.705,4.226 -25.28,-4.09 -25.879,-8.281 0,0 Z" /></g><g
           transform="translate(81.7271,26.8057)"
           id="g116"><path
             id="path118"
             style="fill:#f2f2f2;fill-opacity:1;fill-rule:nonzero;stroke:none"
             d="m 0,0 0.704,4.225 -25.352,-8.113 12.5,0 L 0,0 Z" /></g><g
           transform="translate(88.769,69.0586)"
           id="g120"><path
             id="path122"
             style="fill:#f2f2f2;fill-opacity:1;fill-rule:nonzero;stroke:none"
             d="M 0,0 0.705,4.226 -25.702,-4.225 -26.301,-8.416 0,0 Z" /></g><g
           transform="translate(128.0625,121.6328)"
           id="g124"><path
             id="path126"
             style="fill:#f2f2f2;fill-opacity:1;fill-rule:nonzero;stroke:none"
             d="M 0,0 28.259,9.042 29.017,13.285 0.82,4.262 0,0 Z" /></g><g
           transform="translate(125.6035,108.8457)"
           id="g128"><path
             id="path130"
             style="fill:#f2f2f2;fill-opacity:1;fill-rule:nonzero;stroke:none"
             d="M 0,0 -0.819,-4.263 27.687,4.86 28.445,9.103 0,0 Z" /></g><g
           transform="translate(107.4067,35.0225)"
           id="g132"><path
             id="path134"
             style="fill:#f2f2f2;fill-opacity:1;fill-rule:nonzero;stroke:none"
             d="M 0,0 0.82,4.263 -20.75,-2.64 -21.455,-6.865 0,0 Z" /></g><g
           transform="translate(138.1396,28.8574)"
           id="g136"><path
             id="path138"
             style="fill:#f2f2f2;fill-opacity:1;fill-rule:nonzero;stroke:none"
             d="m 0,0 0.758,4.242 -29.687,-9.5 -0.132,-0.681 10.5,0 L 0,0 Z" /></g><g
           transform="translate(100.7412,116.8896)"
           id="g140"><path
             id="path142"
             style="fill:#f2f2f2;fill-opacity:1;fill-rule:nonzero;stroke:none"
             d="M 0,0 -0.705,-4.226 23.059,3.379 23.879,7.642 0,0 Z" /></g><g
           transform="translate(98.6284,104.2139)"
           id="g144"><path
             id="path146"
             style="fill:#f2f2f2;fill-opacity:1;fill-rule:nonzero;stroke:none"
             d="m 0,0 23.533,7.53 0.82,4.263 L 0.704,4.226 0,0 Z" /></g><g
           transform="translate(68.4565,102.5586)"
           id="g148"><path
             id="path150"
             style="fill:#f2f2f2;fill-opacity:1;fill-rule:nonzero;stroke:none"
             d="M 0,0 27.355,8.754 28.059,12.979 0.599,4.191 0,0 Z" /></g><g
           transform="translate(127.2432,117.3701)"
           id="g152"><path
             id="path154"
             style="fill:#f2f2f2;fill-opacity:1;fill-rule:nonzero;stroke:none"
             d="M 0,0 -0.82,-4.262 27.563,4.82 28.32,9.063 0,0 Z" /></g><g
           transform="translate(94.4028,102.8613)"
           id="g156"><path
             id="path158"
             style="fill:#f2f2f2;fill-opacity:1;fill-rule:nonzero;stroke:none"
             d="m 0,0 0.705,4.226 -27.25,-8.72 -0.599,-4.192 L 0,0 Z" /></g><g
           transform="translate(91.5859,85.96)"
           id="g160"><path
             id="path162"
             style="fill:#f2f2f2;fill-opacity:1;fill-rule:nonzero;stroke:none"
             d="M 0,0 0.705,4.226 -26.124,-4.359 -26.723,-8.551 0,0 Z" /></g><g
           transform="translate(90.1777,77.5098)"
           id="g164"><path
             id="path166"
             style="fill:#f2f2f2;fill-opacity:1;fill-rule:nonzero;stroke:none"
             d="M 0,0 0.704,4.225 -25.913,-4.293 -26.512,-8.484 0,0 Z" /></g><g
           transform="translate(92.9946,94.4111)"
           id="g168"><path
             id="path170"
             style="fill:#f2f2f2;fill-opacity:1;fill-rule:nonzero;stroke:none"
             d="M 0,0 0.704,4.225 -26.335,-4.428 -26.934,-8.619 0,0 Z" /></g></g></g></g></svg>
